build/svg/cmd/sc_colorscaleformatdialog.svg

<?xml version="1.0" encoding="UTF-8" standalone="no"?>
<svg
   xmlns:dc="http://purl.org/dc/elements/1.1/"
   xmlns:cc="http://creativecommons.org/ns#"
   xmlns:rdf="http://www.w3.org/1999/02/22-rdf-syntax-ns#"
   xmlns:svg="http://www.w3.org/2000/svg"
   xmlns="http://www.w3.org/2000/svg"
   xmlns:sodipodi="http://sodipodi.sourceforge.net/DTD/sodipodi-0.dtd"
   xmlns:inkscape="http://www.inkscape.org/namespaces/inkscape"
   viewBox="0 0 16 16"
   version="1.1"
   id="svg8"
   sodipodi:docname="sc_colorscaleformatdialog.svg"
   inkscape:export-filename="/home/jupiter007/Libreoffice yaru theme fullcolor/build/cmd/sc_colorscaleformatdialog.png"
   inkscape:export-xdpi="96"
   inkscape:export-ydpi="96"
   inkscape:version="0.92.5 (2060ec1f9f, 2020-04-08)">
  <metadata
     id="metadata14">
    <rdf:RDF>
      <cc:Work
         rdf:about="">
        <dc:format>image/svg+xml</dc:format>
        <dc:type
           rdf:resource="http://purl.org/dc/dcmitype/StillImage" />
      </cc:Work>
    </rdf:RDF>
  </metadata>
  <defs
     id="defs12" />
  <sodipodi:namedview
     pagecolor="#ffffff"
     bordercolor="#666666"
     borderopacity="1"
     objecttolerance="10"
     gridtolerance="10"
     guidetolerance="10"
     inkscape:pageopacity="0"
     inkscape:pageshadow="2"
     inkscape:window-width="1920"
     inkscape:window-height="1011"
     id="namedview10"
     showgrid="true"
     inkscape:zoom="59"
     inkscape:cx="12.03674"
     inkscape:cy="5.3338787"
     inkscape:window-x="0"
     inkscape:window-y="32"
     inkscape:window-maximized="1"
     inkscape:current-layer="svg8">
    <inkscape:grid
       type="xygrid"
       id="grid829" />
  </sodipodi:namedview>
  <path
     sodipodi:nodetypes="cccscsccccccccscscccccc"
     inkscape:connector-curvature="0"
     id="path4237-1"
     d="M 4.9941691,0.99943384 C 3.7359682,1.0145519 2.815279,0.96919764 2.0625294,1.3841897 1.6861641,1.5916858 1.3892973,1.9435977 1.2246384,2.3822497 1.0599644,2.8209017 1.0000211,3.3418339 1.0000211,3.9994339 v 1.4882655 6.5128666 c 0,0.6576 0.059906,1.17857 0.2246173,1.617185 0.1646741,0.438614 0.4615295,0.788522 0.837891,0.996094 0.7527194,0.415106 1.6735408,0.371528 2.9316397,0.386721 h 0.002 6.0058619 0.0038 c 1.25819,-0.01512 2.17889,0.03024 2.93164,-0.384793 0.376365,-0.207496 0.673221,-0.55937 0.837891,-0.998022 C 14.939885,13.179061 14.999979,13 14.999979,12.000566 V 5.4662314 3.9994339 c 0,-0.6576 -0.05991,-1.17857 -0.224617,-1.6171842 C 14.610666,1.9436355 14.313811,1.5937267 13.937449,1.3861551 13.184681,0.97101174 12.263848,1.0146275 11.00576,0.99943384 h -0.002 -6.0058609 z"
     style="font-style:normal;font-variant:normal;font-weight:normal;font-stretch:normal;font-size:15px;line-height:125%;font-family:Ubuntu;-inkscape-font-specification:Ubuntu;text-align:center;letter-spacing:0px;word-spacing:0px;writing-mode:lr-tb;text-anchor:middle;display:inline;opacity:0.6;fill:#000000;fill-opacity:1;stroke:none;stroke-width:0.99980205" />
  <path
     inkscape:connector-curvature="0"
     id="path1993"
     d="M 5.9833981,2.0266339 C 4.4268181,2.0379729 4.8734061,2.0152959 3.3234554,2.0655629 2.8622283,2.1082719 2.3072689,2.2719251 2.1681181,2.7755094 1.9491322,3.4108477 2.0597212,4.1093047 2.0223039,4.7574177 c -0.00794,2.2971225 -0.023055,5.5969753 0.021543,7.8863483 0.039118,0.461934 0.2025449,1.012649 0.6987553,1.163641 0.6324586,0.22526 1.2841479,0.122835 1.9359759,0.154205 1.424236,0.0076 2.8505629,0.01134 4.2764199,0.01134 1.70453,3.4e-4 1.40839,-0.0038 3.107189,-0.0189 0.511911,-0.01134 1.183699,0.0189 1.584745,-0.405165 0.4211,-0.539793 0.287093,-1.268032 0.322734,-1.903786 0.01172,-2.4443343 0.02759,-5.9116577 -0.02192,-8.3573533 C 13.898456,2.8857204 13.777741,2.424807 13.372606,2.2432763 12.704435,1.949229 11.946401,2.0754652 11.246682,2.03767 9.492278,2.026331 7.737809,2.026331 5.9833711,2.026331 Z"
     style="opacity:1;vector-effect:none;fill:#ffffff;fill-opacity:1;stroke:none;stroke-width:1;stroke-linecap:round;stroke-linejoin:bevel;stroke-miterlimit:4;stroke-dasharray:none;stroke-dashoffset:0;stroke-opacity:1"
     sodipodi:nodetypes="cccccccscccccccc" />
  <rect
     style="opacity:1;fill:#c7162b;fill-opacity:1;fill-rule:evenodd;stroke:none;stroke-width:1.63299322;stroke-linecap:butt;stroke-linejoin:round;stroke-miterlimit:4;stroke-dasharray:none;stroke-opacity:1"
     id="rect832"
     width="8"
     height="2"
     x="4"
     y="3.9999998" />
  <rect
     y="6.9999995"
     x="4"
     height="2"
     width="3"
     id="rect834"
     style="opacity:1;fill:#1a7fd4;fill-opacity:1;fill-rule:evenodd;stroke:none;stroke-width:0.99999994;stroke-linecap:butt;stroke-linejoin:round;stroke-miterlimit:4;stroke-dasharray:none;stroke-opacity:1" />
  <rect
     style="opacity:1;fill:#46a926;fill-opacity:1;fill-rule:evenodd;stroke:none;stroke-width:1.41421354;stroke-linecap:butt;stroke-linejoin:round;stroke-miterlimit:4;stroke-dasharray:none;stroke-opacity:1"
     id="rect836"
     width="6"
     height="2"
     x="4"
     y="10" />
  <path
     inkscape:connector-curvature="0"
     style="opacity:0.6;fill:#000000;fill-opacity:1;stroke:#000000;stroke-width:2;stroke-linejoin:round;stroke-miterlimit:4;stroke-dasharray:none"
     id="path830"
     d="M 13.5625,9.7187497 12.78125,11 H 10 v 1 h 2.1875 l -0.59375,1 H 10 v 1 h 1 l -0.4375,0.71875 0.875,0.53125 0.75,-1.25 H 15 V 13 H 12.78125 L 13.375,12 H 15 v -1 h -1 l 0.4375,-0.75 z" />
  <path
     inkscape:connector-curvature="0"
     d="M 13.5625,9.7187497 12.78125,11 H 10 v 1 h 2.1875 l -0.59375,1 H 10 v 1 h 1 l -0.4375,0.71875 0.875,0.53125 0.75,-1.25 H 15 V 13 H 12.78125 L 13.375,12 H 15 v -1 h -1 l 0.4375,-0.75 z"
     id="path4"
     style="fill:#aee3f8;fill-opacity:1" />
</svg>

<svg xmlns="http://www.w3.org/2000/svg" viewBox="0 0 16 16"><path d="M4.994 1c-1.258.015-2.179-.03-2.931.384-.377.208-.674.56-.838.998C1.06 2.821 1 3.342 1 4v8.002c0 .657.06 1.178.225 1.617.164.438.461.788.838.996.752.415 1.673.371 2.931.387h6.012c1.258-.016 2.179.03 2.931-.385.377-.208.674-.56.838-.998C14.94 13.179 15 13 15 12V3.999c0-.657-.06-1.178-.225-1.617a1.875 1.875 0 00-.838-.996c-.752-.415-1.673-.371-2.931-.387H4.998z" style="line-height:125%;-inkscape-font-specification:Ubuntu;text-align:center" font-weight="400" font-size="15" font-family="Ubuntu" letter-spacing="0" word-spacing="0" text-anchor="middle" opacity=".6"/><path d="M5.983 2.027c-1.556.011-1.11-.012-2.66.039-.46.042-1.016.206-1.155.71-.219.635-.108 1.333-.146 1.981-.008 2.298-.023 5.597.022 7.887.039.462.202 1.012.699 1.163.632.226 1.284.123 1.936.155 1.424.007 2.85.011 4.276.011 1.705 0 1.408-.004 3.107-.019.512-.011 1.184.019 1.585-.405.421-.54.287-1.268.323-1.904.011-2.444.027-5.912-.022-8.357-.05-.402-.17-.863-.575-1.045-.669-.294-1.427-.168-2.126-.205-1.755-.012-3.51-.012-5.264-.012z" fill="#fff"/><path fill="#c7162b" fill-rule="evenodd" d="M4 4h8v2H4z"/><path fill="#1a7fd4" fill-rule="evenodd" d="M4 7h3v2H4z"/><path fill="#46a926" fill-rule="evenodd" d="M4 10h6v2H4z"/><path d="M13.563 9.719L12.78 11H10v1h2.188l-.594 1H10v1h1l-.438.719.876.531.75-1.25H15v-1h-2.219l.594-1H15v-1h-1l.438-.75z" opacity=".6" stroke="#000" stroke-width="2" stroke-linejoin="round"/><path d="M13.563 9.719L12.78 11H10v1h2.188l-.594 1H10v1h1l-.438.719.876.531.75-1.25H15v-1h-2.219l.594-1H15v-1h-1l.438-.75z" fill="#aee3f8"/></svg>
